icon/lg/semaphoreci.svg

<?xml version="1.0" encoding="UTF-8"?>
<svg viewBox="0 0 256 160" version="1.1" xmlns="http://www.w3.org/2000/svg" xmlns:xlink="http://www.w3.org/1999/xlink" preserveAspectRatio="xMidYMid" height="1em" width="1em">
  <g>
    <path d="M26.5234742,66.6177453 L70.8724138,111.612738 C83.6512291,124.608309 104.590755,124.608309 117.368817,111.612738 L152.483277,75.900694 C157.530379,70.7677181 165.798714,70.7677181 170.845816,75.900694 L188.241231,93.5926434 L143.999691,138.696692 C130.255258,152.675191 112.214843,159.555686 94.1744284,159.555686 C76.1340131,159.555686 58.0938993,152.56606 44.3489395,138.587561 L0,93.5926434 L26.5234742,66.6177453 Z" fill="#F06332"/>
    <path d="M211.650871,20.9684206 L256.000036,66.0723181 L229.369163,93.1561213 L185.019997,48.0526002 C172.134309,34.9472962 151.409282,34.9472962 138.523594,48.0526002 L103.409886,83.7641174 C98.3627849,88.8970177 90.0944496,88.8970177 85.0473481,83.7641174 L67.6513305,66.0723181 L112.000345,20.9684206 C139.489964,-6.98947353 184.161252,-6.98947353 211.650871,20.9684206 L211.650871,20.9684206 Z" fill="#029D74"/>
  </g>
</svg>

<svg width="256" height="160" xmlns="http://www.w3.org/2000/svg" preserveAspectRatio="xMidYMid"><path d="m26.523 66.618 44.35 44.995c12.778 12.995 33.718 12.995 46.496 0L152.483 75.9c5.047-5.133 13.316-5.133 18.363 0l17.395 17.692L144 138.697c-13.745 13.978-31.785 20.859-49.826 20.859-18.04 0-36.08-6.99-49.825-20.968L0 93.593l26.523-26.975Z" fill="#F06332"/><path d="M211.65 20.968 256 66.072l-26.63 27.084-44.35-45.103c-12.886-13.106-33.61-13.106-46.496 0L103.41 83.764c-5.047 5.133-13.316 5.133-18.363 0L67.651 66.072l44.35-45.104c27.489-27.957 72.16-27.957 99.65 0Z" fill="#029D74"/></svg>
